apps/web/public/images/iconographie/profil-mediateur.svg

<svg width="56" height="56" viewBox="0 0 56 56" fill="none" xmlns="http://www.w3.org/2000/svg">
    <rect y="-0.000488281" width="56" height="56" rx="8" fill="#F5F5FE"/>
    <path fill-rule="evenodd" clip-rule="evenodd" d="M28 38.2383C22.477 38.2383 18 33.7613 18 28.2383C18 22.7153 22.477 18.2383 28 18.2383C33.523 18.2383 38 22.7153 38 28.2383C38 33.7613 33.523 38.2383 28 38.2383ZM23.013 34.4943C24.4285 35.626 26.1877 36.2412 28 36.2383C29.97 36.2383 31.773 35.5263 33.167 34.3463C31.8512 32.9962 30.0452 32.2358 28.16 32.2383C26.204 32.236 24.3369 33.0544 23.013 34.4943ZM21.616 33.0583C23.3147 31.2555 25.683 30.235 28.16 30.2383C30.5466 30.2352 32.8361 31.1831 34.522 32.8723C36.8982 29.5279 36.3594 24.9282 33.2747 22.2235C30.19 19.5188 25.5593 19.5859 22.5542 22.3788C19.5492 25.1718 19.1439 29.7852 21.616 33.0593V33.0583ZM28 29.2383C25.7909 29.2383 24 27.4474 24 25.2383C24 23.0291 25.7909 21.2383 28 21.2383C30.2091 21.2383 32 23.0291 32 25.2383C32 27.4474 30.2091 29.2383 28 29.2383ZM28 27.2383C29.1046 27.2383 30 26.3428 30 25.2383C30 24.1337 29.1046 23.2383 28 23.2383C26.8954 23.2383 26 24.1337 26 25.2383C26 26.3428 26.8954 27.2383 28 27.2383Z" fill="#000091"/>
</svg>

<svg width="56" height="56" viewBox="0 0 56 56" fill="none" xmlns="http://www.w3.org/2000/svg"><rect width="56" height="56" rx="8" fill="#F5F5FE"/><path fill-rule="evenodd" clip-rule="evenodd" d="M28 38.238c-5.523 0-10-4.477-10-10s4.477-10 10-10 10 4.477 10 10-4.477 10-10 10m-4.987-3.744A7.97 7.97 0 0 0 28 36.238a7.97 7.97 0 0 0 5.167-1.892 6.98 6.98 0 0 0-5.007-2.108 6.98 6.98 0 0 0-5.147 2.256m-1.397-1.436a8.98 8.98 0 0 1 6.544-2.82 8.97 8.97 0 0 1 6.362 2.634 8 8 0 1 0-12.906.187M28 29.238a4 4 0 1 1 0-8 4 4 0 0 1 0 8m0-2a2 2 0 1 0 0-4 2 2 0 0 0 0 4" fill="#000091"/></svg>
